src/symbolic/devices/smartphone-symbolic.svg

<svg xmlns="http://www.w3.org/2000/svg" width="16" height="16"><path d="M4 0C3 0 3 1 3 1v14s0 1 1 1h8c1 0 1-1 1-1V1s0-1-1-1zm1 2h6v10H5zm3 11a1 1 0 0 1 1 1 1 1 0 0 1-1 1 1 1 0 0 1-1-1 1 1 0 0 1 1-1z" fill="#444"/></svg>

<svg xmlns="http://www.w3.org/2000/svg" width="16" height="16" version="1.1">
 <path style="fill:#444444" d="M 4,0 C 3,0 3,1 3,1 V 15 C 3,15 3,16 4,16 H 12 C 13,16 13,15 13,15 V 1 C 13,1 13,0 12,0 Z M 5,2 H 11 V 12 H 5 Z M 8,13 A 1,1 0 0 1 9,14 1,1 0 0 1 8,15 1,1 0 0 1 7,14 1,1 0 0 1 8,13 Z"/>
</svg>
